icon-svg/friends-of-hue-retrotouch-white-plain.svg

<svg xmlns="http://www.w3.org/2000/svg" fill="#44739e" viewBox="0 0 24 24"><path d="M22.8.7H1.2c-.2 0-.5.3-.5.5v21.5c0 .3.2.5.5.5h21.5c.3 0 .5-.2.5-.5V1.2c.1-.2-.2-.5-.4-.5m-.5 21.6H1.7V1.7h20.5v20.6zM5.5 18.5h12.9c.3 0 .5-.2.5-.5V6c0-.3-.2-.5-.5-.5H5.5c-.3 0-.5.2-.5.5v12c0 .3.2.5.5.5m12.4-1h-5.4v-11h5.4zM6 6.5h5.5v11H6zm1.6 2h2.2c.3 0 .5-.2.5-.5s-.3-.5-.5-.5H7.6c-.3 0-.5.2-.5.5s.2.5.5.5m2.2 7.1H7.6c-.3 0-.5.2-.5.5s.2.5.5.5h2.2c.3 0 .5-.2.5-.5s-.3-.5-.5-.5m4.4-7.1h2.2c.3 0 .5-.2.5-.5s-.2-.5-.5-.5h-2.2c-.3 0-.5.2-.5.5s.2.5.5.5m2.2 7.1h-2.2c-.3 0-.5.2-.5.5s.2.5.5.5h2.2c.3 0 .5-.2.5-.5s-.2-.5-.5-.5"/></svg>

<svg viewBox="0 0 24 24" height="24px" width="24px" fill="#44739e" xmlns="http://www.w3.org/2000/svg"><title>hue:friends-of-hue-retrotouch-white-plain</title><path d="M22.8,0.7H1.2C1,0.7,0.7,1,0.7,1.2v21.5c0,0.3,0.2,0.5,0.5,0.5h21.5c0.3,0,0.5-0.2,0.5-0.5V1.2C23.3,1,23,0.7,22.8,0.7z M22.3,22.3H1.7V1.7h20.5V22.3z M5.5,18.5h12.9c0.3,0,0.5-0.2,0.5-0.5V6c0-0.3-0.2-0.5-0.5-0.5H5.5C5.2,5.5,5,5.7,5,6v12C5,18.3,5.2,18.5,5.5,18.5z M17.9,17.5h-5.4v-11h5.4V17.5z M6,6.5h5.5v11H6V6.5 M7.6,8.5h2.2c0.3,0,0.5-0.2,0.5-0.5S10,7.5,9.8,7.5H7.6C7.3,7.5,7.1,7.7,7.1,8S7.3,8.5,7.6,8.5z M9.8,15.6H7.6c-0.3,0-0.5,0.2-0.5,0.5s0.2,0.5,0.5,0.5h2.2c0.3,0,0.5-0.2,0.5-0.5S10,15.6,9.8,15.6z M14.2,8.5h2.2c0.3,0,0.5-0.2,0.5-0.5s-0.2-0.5-0.5-0.5h-2.2c-0.3,0-0.5,0.2-0.5,0.5S13.9,8.5,14.2,8.5z M16.4,15.6h-2.2c-0.3,0-0.5,0.2-0.5,0.5s0.2,0.5,0.5,0.5h2.2c0.3,0,0.5-0.2,0.5-0.5S16.7,15.6,16.4,15.6z"/></svg>
